components/home/unstoppable-organizations/assets/background.svg

<svg width="1136" height="887" viewBox="0 0 1136 887" version="1.1" xmlns="http://www.w3.org/2000/svg" xmlns:xlink="http://www.w3.org/1999/xlink">
<title>background</title>
<desc>Created using Figma</desc>
<g id="Canvas" transform="translate(-1427 0)">
<g id="background">
<g id="Big_Logo_bg">
<g id="Fill 1" opacity="0.778533">
<use xlink:href="#path0_fill" transform="translate(1670.37 -3.98123)" fill="url(#paint0_linear)"/>
</g>
<g id="Fill 3" opacity="0.373811">
<use xlink:href="#path1_fill" transform="translate(2374.58 197.921)" fill="url(#paint1_linear)"/>
</g>
<g id="Fill 7" opacity="0.556726">
<use xlink:href="#path2_fill" transform="translate(1427.15 59.9199)" fill="url(#paint2_linear)"/>
</g>
</g>
</g>
</g>
<defs>
<linearGradient id="paint0_linear" x1="0" y1="0" x2="1" y2="0" gradientUnits="userSpaceOnUse" gradientTransform="matrix(-701.508 388.133 -537.587 -506.482 519.968 188.693)">
<stop offset="0" stop-color="#E9F2F4"/>
<stop offset="1" stop-color="#FFFFFF"/>
</linearGradient>
<linearGradient id="paint1_linear" x1="0" y1="0" x2="1" y2="0" gradientUnits="userSpaceOnUse" gradientTransform="matrix(0 -374.977 184.753 0 93.8141 479.392)">
<stop offset="0" stop-color="#E9F2F4"/>
<stop offset="1" stop-color="#FFFFFF"/>
</linearGradient>
<linearGradient id="paint2_linear" x1="0" y1="0" x2="1" y2="0" gradientUnits="userSpaceOnUse" gradientTransform="matrix(-122.453 -375.141 374.774 -122.573 410.509 427.065)">
<stop offset="0" stop-color="#E9F2F4"/>
<stop offset="1" stop-color="#FFFFFF"/>
</linearGradient>
<path id="path0_fill" fill-rule="evenodd" d="M 233.112 64.4118C 232.607 64.4118 0 138.74 0 342.018C 0 545.296 224.521 643.896 389.869 643.896C 479.802 643.896 553.68 617.723 602.411 593.845C 608.691 565.027 631.532 496.777 707.099 496.267C 720.575 495.741 733.217 498.269 743.841 504.337C 794.408 531.648 761.539 582.715 761.539 582.715C 763.446 582.407 765.372 582.048 767.299 581.633C 769.22 581.219 771.152 580.738 773.099 580.217C 833.875 563.849 902.357 494.33 890.479 377.92C 880.958 284.574 794.802 225.406 752.892 201.903C 739.169 194.206 730.188 190.318 730.188 190.318C 731.705 180.837 732.195 173.504 732.195 167.871C 732.195 166.814 732.175 165.823 732.145 164.893C 732.145 156.488 732.145 153.966 732.145 153.966C 512.216 20.5524 326.105 0 234.311 0C 194.656 0 172.432 3.72676 172.432 3.72676L 233.112 64.4118ZM 697.82 190.824C 697.82 190.824 667.986 181.216 637.651 177.17C 622.476 192.846 609.328 199.42 605.283 201.448C 604.777 201.948 604.272 202.454 604.272 202.454C 515.78 183.744 483.923 138.234 483.923 138.234C 567.363 137.734 642.708 157.449 697.82 190.824Z"/>
<path id="path1_fill" fill-rule="evenodd" d="M 76.0371 114.832C 76.0371 181.079 48.7362 242.26 2.20976 291.815L 2.20976 291.815L 0 294.359C 2.15414 294.354 3.44359 294.349 3.72676 294.349L 3.72676 294.349C 16.3684 293.838 29.0101 296.366 39.6342 302.434L 39.6342 302.434C 90.2009 329.745 57.3325 380.813 57.3325 380.813L 57.3325 380.813C 120.541 370.699 198.919 299.911 186.272 176.018L 186.272 176.018C 176.751 82.6715 90.5953 23.5034 48.6856 0L 48.6856 0C 66.6975 35.5737 76.0371 74.6465 76.0371 114.832"/>
<path id="path2_fill" fill-rule="evenodd" d="M 0 484.935C 0 493.136 0.31857 500.944 0.77367 508.574L 0.77367 508.574C 63.355 628.928 138.634 734.071 224.734 821.142L 224.734 821.142C 332.112 929.492 457.057 1009.88 596.176 1060.15L 596.176 1060.15C 734.79 1010.05 859.74 929.492 967.634 820.621L 967.634 820.621C 999.622 788.279 1030.13 753.322 1059.11 715.969L 1059.11 715.969C 828.424 699.388 842.436 559.268 842.436 559.268L 842.436 559.268C 842.436 553.71 842.436 548.143 843.447 542.581L 843.447 542.581C 843.447 542.581 843.958 537.66 845.637 529.939L 845.637 529.939C 796.906 553.821 723.028 579.995 633.09 579.995L 633.09 579.995C 467.742 579.995 243.221 481.395 243.221 278.117L 243.221 278.117C 243.221 74.8387 475.827 0.510724 475.827 0.510724L 475.827 0.510724L 475.706 0.475327C 469.81 0.0202267 463.489 0 457.623 0L 457.623 0C 203.273 9.10706 0 222.493 0 484.935"/>
</defs>
</svg>

<svg width="1136" height="887" viewBox="0 0 1136 887" xmlns="http://www.w3.org/2000/svg" xmlns:xlink="http://www.w3.org/1999/xlink"><use xlink:href="#a" transform="translate(243.37 -3.981)" fill="url(#b)" opacity=".779"/><use xlink:href="#c" transform="translate(947.58 197.921)" fill="url(#d)" opacity=".374"/><use xlink:href="#e" transform="translate(.15 59.92)" fill="url(#f)" opacity=".557"/><defs><linearGradient id="b" x2="1" gradientUnits="userSpaceOnUse" gradientTransform="matrix(-701.508 388.133 -537.587 -506.482 519.968 188.693)"><stop offset="0" stop-color="#E9F2F4"/><stop offset="1" stop-color="#FFF"/></linearGradient><linearGradient id="d" x2="1" gradientUnits="userSpaceOnUse" gradientTransform="matrix(0 -374.977 184.753 0 93.814 479.392)"><stop offset="0" stop-color="#E9F2F4"/><stop offset="1" stop-color="#FFF"/></linearGradient><linearGradient id="f" x2="1" gradientUnits="userSpaceOnUse" gradientTransform="matrix(-122.453 -375.141 374.774 -122.573 410.509 427.065)"><stop offset="0" stop-color="#E9F2F4"/><stop offset="1" stop-color="#FFF"/></linearGradient><path id="a" fill-rule="evenodd" d="M233.112 64.412C232.607 64.412 0 138.74 0 342.018s224.521 301.878 389.869 301.878c89.933 0 163.811-26.173 212.542-50.051 6.28-28.818 29.121-97.068 104.688-97.578 13.476-.526 26.118 2.002 36.742 8.07 50.567 27.311 17.698 78.378 17.698 78.378 1.907-.308 3.833-.667 5.76-1.082 1.921-.414 3.853-.895 5.8-1.416 60.776-16.368 129.258-85.887 117.38-202.297-9.521-93.346-95.677-152.514-137.587-176.017-13.723-7.697-22.704-11.585-22.704-11.585 1.517-9.481 2.007-16.814 2.007-22.447 0-1.057-.02-2.048-.05-2.978v-10.927C512.216 20.552 326.105 0 234.311 0c-39.655 0-61.879 3.727-61.879 3.727l60.68 60.685zM697.82 190.824s-29.834-9.608-60.169-13.654c-15.175 15.676-28.323 22.25-32.368 24.278-.506.5-1.011 1.006-1.011 1.006-88.492-18.71-120.349-64.22-120.349-64.22 83.44-.5 158.785 19.215 213.897 52.59z"/><path id="c" fill-rule="evenodd" d="M76.037 114.832c0 66.247-27.3 127.428-73.827 176.983L0 294.359l3.727-.01c12.641-.511 25.283 2.017 35.907 8.085 50.567 27.311 17.699 78.379 17.699 78.379 63.208-10.114 141.586-80.902 128.939-204.795C176.751 82.671 90.595 23.503 48.686 0c18.012 35.574 27.351 74.647 27.351 114.832"/><path id="e" fill-rule="evenodd" d="M0 484.935c0 8.201.319 16.009.774 23.639 62.581 120.354 137.86 225.497 223.96 312.568 107.378 108.35 232.323 188.738 371.442 239.008 138.614-50.1 263.564-130.658 371.458-239.529 31.988-32.342 62.496-67.299 91.476-104.652-230.686-16.581-216.674-156.701-216.674-156.701 0-5.558 0-11.125 1.011-16.687 0 0 .511-4.921 2.19-12.642-48.731 23.882-122.609 50.056-212.547 50.056-165.348 0-389.869-98.6-389.869-301.878S475.827.511 475.827.511l-.121-.036C469.81.02 463.489 0 457.623 0 203.273 9.107 0 222.493 0 484.935"/></defs></svg>
